X:1
T:Miss Louisa Duff
T:Miss Louisa Duff
T:William Marshall
C:William Marshall
L:1/8
Q:1/8=232
M:4/4
K:Gmin
V:1 treble 
V:1
|: B2 GB DG BG | A2 Fc AF cA | B2 GB DG BF | AG ^FA G/G/G G2 | B2 GB DG BG | A2 Fc AF cA | %6
 B2 GB DG BF | AG ^FA G/G/G G2 | dg ga bg af | cf fa bg af | dg ga bg af | ag ^fa g/g/g g2 | %12
 dg ga bg af | cf fa bg af | de fg fd cB | AG ^FA G/G/G G2 :| %16

